X: 21262
T: BLACK, BUT COMELY -- Reel
R: reel
B: K\"ohler's Violin Repository, v.2, 1885 p.126 #2
F: http://www.archive.org/details/klersviolinrepos02rugg
Z: 2012 John Chambers <jc:trillian.mit.edu>
M: C|
L: 1/8
K: D
uA |\
d2(fd) AAfd | eefd B2(AB) | defd AAfd | (fe)dB A2AB |
d2(fd) AAfd | eefd B2(AB) | defd AAfd | (fe)dB AAA || uf |
a(da)f (fe)ef | a(da)f B2Bf | a(da)f (fe)ef | (d>e)dB A2Af |
a(da)f (fe)ef | a(da)f B2Bf | a(da)f (fe)ef | (d>e)dB A2"_Fine."A "^D.C."|]

%%sep 2 1 500

